symbols/web/chat/materialsymbolsoutlined/chat_wght700fill1_24px.svg

<svg xmlns="http://www.w3.org/2000/svg" height="24" width="24"><path d="M6 14h8v-2H6Zm0-3h12V9H6Zm0-3h12V6H6ZM1.15 22.85V4.3q0-1.325.912-2.238.913-.912 2.238-.912h15.4q1.325 0 2.238.912.912.913.912 2.238v11.4q0 1.325-.912 2.238-.913.912-2.238.912H5.15Z"/></svg>

<svg xmlns="http://www.w3.org/2000/svg" height="24" width="24"><path d="M6 14H14V12H6ZM6 11H18V9H6ZM6 8H18V6H6ZM1.15 22.85V4.3Q1.15 2.975 2.062 2.062Q2.975 1.15 4.3 1.15H19.7Q21.025 1.15 21.938 2.062Q22.85 2.975 22.85 4.3V15.7Q22.85 17.025 21.938 17.938Q21.025 18.85 19.7 18.85H5.15Z"/></svg>
